X: 1302
T: SPANISH DANCE
C: S. Knaebel
B: Oliver Ditson "The Boston Collection of Instrumental Music" 1910 p.130 #2
F: http://conquest.imslp.info/files/imglnks/usimg/8/8f/IMSLP175643-PMLP309456-bostoncollection00bost_bw.pdf
%: 2012 John Chambers <jc:trillian.mit.edu>
M: 3/4
L: 1/8
K: Bb
(df) |\
(cd)e2(dc) | (df)B2(AG) | (GF)F2EC | DCB,2(df) |\
(cd)e2(dc) | (df)B2(AG) | (FGF)edc | B4 :|
|: (AB) |\
c2F2(Bc) | d2F2(de) | (d2c2)(fe) | (^cd)d2ba |\
agc2eg | (gf)B2(AG) | F2e2(cd) | B4 H:|

%%sep 1 1 500
%%sep 1 1 500
